X:1035
T:The New Road
R:reel
H:Also in Dmix, #300
D:Dervish: The Boys of Sligo
Z:id:hn-reel-698
M:C|
K:Dmix
DFEF D2dB|cAAG EFGE|DFEF D2dB|cAGE EDDE|
DFEF D2Ad|cAAG EFGB|Add2 fded|cAGE EDD2:|
|:f3e fage|fefg afde|f3e fage|fdec Adde|
3e fage|fefg afde|fage dfed|cAAG EFGE:|
